X: 1950
T: Arrival Of The Queen Of Sheba, The
R: reel
M: 4/4
K: Gmajor
gdBd gdBd gdBd gdBd|Agfe dcBA BGAB cdef|gdBd gdBd g^cAc geAe|
fede A2^c2 d2AB ABAB|AFDF AFDF dBGB dBGB|cAFA cAFA BDEF GABc|
dBGB dBGB dAFA dAFA|BGEG BGEG BFDF BFDF|gece gece gdBd gdBd|
cded cBAG AGFG FEDc|BDcE DFEG FAGB AcBd|cdcd edcB ABAB cdcd|
eded cBcB ABAB cdcd|eded cBcB ABAB cBcA|Bdce dfeg f2ed g2c2|
B2AG D2F2 G2D2 G4|gdBd gdBd gdBd gdBd|Agfe dcBA B2D2 G4|
dAFA dAFA dAFA dAdf|ed^cB AGFE FDEF GABc|
d4 z4 z8|AFDF AFDF AE^cE AEcA|fdBd fdBd f^cAc fcAc|
dBGB dBGB dAFA dAFA|GABA GFED ^c4z4|B^cBA GAGF EFEF GAGA|
BABA GFGF EFEF GAGA|BABA GFGF EFEF GAGA|F2d2 E2^c2 d2A2 D4|
gdBd gdBd gdBd gdBd|Agfe dcBA BGAB GBcD|G4z4 z8|eBGB eBGB eBGB eBeg|
fe^d^c BAGF GEFG ABcd|e4z4 ecAc ecAc|d4z4 dBGB dBGB|
c4z4 cAFA cAFA|B4z4 eBGB eBGB|^d4z4 BGEG BGEG|
c4z4 f^dBd fdBd|eBGB eBGB e2dc B2A2|G4F4 E4z4|
gece gece gdBd gdBd|ecAc ecAc eBGB eBGB|cA=FA cAFA cGEG cGEG|
=fedc BAG=F E2c2E2G2|c4z4 z8|GEcE GEcE AE^cE AEcE|
AFDF AFDF BF^DF BFDF|BGEG BGEG cGEG cGEG|cA=FA cAFA dA^FA dAFA|
B4z4 z8|gdBd gdBd F4z4|AEcE AEcE B4z4|cAEA B^GEG A4z4|
AFDF AFDF G4z4|dBGB dBGB E4z4|e^cAc ecAc BFDF AFDF|
dBGB dBGB dAFA dAFA|BGEG BGEG BFDF BFDF|gece gece gdBd gdBd|
cded cBAG FGAG FEDc|BDcE DFEG FAGB AcBd|cdcd edcB ABAB cdcd|
eded cBcB ABAB cdcd|eded cBcB ABAB cBcA|Bdce dfeg f2ed g2c2|B2AG D2F2 G2G2 z4|

